;FLAVOR:Marlin
;TIME:3742
;Filament used: 2.3841m
;Layer height: 0.16
;MINX:74.765
;MINY:78.352
;MINZ:0.3
;MAXX:161.287
;MAXY:141.431
;MAXZ:11.98
;Generated with Cura_SteamEngine 5.0.0
M140 S40
M105
M190 S40
M104 S195
M105
M109 S195
M82 ;absolute extrusion mode
G28 X0 Y0 Z0;
G92 E0
G92 E0
G1 F3000 E-8
;LAYER_COUNT:74
;LAYER:0
M107
G0 F6000 X82.489 Y88.317 Z0.3
G0 X77.248 Y98.757
;TYPE:SKIRT
G1 F3000 E0
G1 F1200 X77.37 Y97.856 E0.04083
G1 X77.561 Y96.82 E0.08813
G1 X77.689 Y96.274 E0.11331
G1 X78.055 Y95.044 E0.17093
G1 X78.259 Y94.48 E0.19786
G1 X78.772 Y93.287 E0.25617
G1 X79.033 Y92.767 E0.28229
G1 X79.683 Y91.641 E0.34067
G1 X80.015 Y91.138 E0.36773
G1 X80.795 Y90.097 E0.42614
G1 X81.172 Y89.651 E0.45236
G1 X82.065 Y88.713 E0.51051
G1 X82.489 Y88.317 E0.53656
G1 X83.425 Y87.535 E0.59133
G1 X84.124 Y87.022 E0.63026
G1 X84.873 Y86.502 E0.6712
G1 X86.978 Y84.996 E0.78742
G1 X88.975 Y83.479 E0.90002
G1 X90.973 Y81.87 E1.01521
G1 X91.844 Y81.133 E1.06644
G1 X92.199 Y80.843 E1.08702
G1 X92.95 Y80.281 E1.12914
G1 X93.746 Y79.785 E1.17125
G1 X94.581 Y79.359 E1.21334
G1 X95.45 Y79.006 E1.25546
G1 X96.346 Y78.728 E1.29758
G1 X97.262 Y78.527 E1.33969
G1 X98.192 Y78.405 E1.3818
G1 X98.961 Y78.364 E1.41638
G1 X99.715 Y78.352 E1.45024
G1 X125.383 Y78.352 E2.60277
G1 X126.242 Y78.363 E2.64134
G1 X127.178 Y78.416 E2.68343
G1 X128.106 Y78.549 E2.72553
G1 X129.02 Y78.761 E2.76766
G1 X129.913 Y79.049 E2.80979
G1 X130.895 Y79.469 E2.85774
G1 X133.395 Y80.684 E2.98255
G1 X135.704 Y81.726 E3.0963
G1 X138.032 Y82.697 E3.20956
G1 X140.359 Y83.593 E3.32152
G1 X142.797 Y84.453 E3.4376
G1 X145.307 Y85.277 E3.55622
G1 X146.059 Y85.554 E3.5922
G1 X146.888 Y85.902 E3.63257
G1 X147.643 Y86.243 E3.66977
G1 X148.397 Y86.619 E3.7076
G1 X149.251 Y87.093 E3.75146
G1 X149.88 Y87.463 E3.78422
G1 X150.544 Y87.886 E3.81957
G1 X151.306 Y88.416 E3.86125
G1 X151.861 Y88.822 E3.89213
G1 X152.51 Y89.336 E3.9293
G1 X153.217 Y89.945 E3.9712
G1 X153.752 Y90.428 E4.00356
G1 X154.359 Y91.02 E4.04163
G1 X154.997 Y91.698 E4.08344
G1 X155.472 Y92.227 E4.11536
G1 X155.993 Y92.853 E4.15193
G1 X156.569 Y93.606 E4.1945
G1 X156.973 Y94.162 E4.22536
G1 X157.329 Y94.683 E4.25369
G1 X157.764 Y95.377 E4.29047
G1 X158.254 Y96.212 E4.33394
G1 X158.606 Y96.86 E4.36705
G1 X158.959 Y97.582 E4.40313
G1 X159.344 Y98.427 E4.44483
G1 X159.609 Y99.061 E4.47568
G1 X159.88 Y99.794 E4.51077
G1 X160.201 Y100.748 E4.55597
G1 X160.423 Y101.497 E4.59105
G1 X160.63 Y102.319 E4.62911
G1 X160.815 Y103.145 E4.66711
G1 X160.965 Y103.955 E4.7041
G1 X161.095 Y104.882 E4.74613
G1 X161.181 Y105.627 E4.77981
G1 X161.244 Y106.426 E4.81579
G1 X161.279 Y107.381 E4.8587
G1 X161.287 Y108.078 E4.89
G1 X161.268 Y108.864 E4.9253
G1 X161.202 Y109.867 E4.97044
G1 X161.137 Y110.569 E5.00209
G1 X161.037 Y111.349 E5.0374
G1 X160.879 Y112.278 E5.07971
G1 X160.744 Y112.972 E5.11146
G1 X160.557 Y113.773 E5.14839
G1 X160.317 Y114.631 E5.1884
G1 X160.091 Y115.368 E5.22301
G1 X159.877 Y115.997 E5.25284
G1 X159.57 Y116.793 E5.29115
G1 X159.212 Y117.646 E5.33269
G1 X158.868 Y118.386 E5.36933
G1 X158.42 Y119.252 E5.41311
G1 X158.065 Y119.896 E5.44613
G1 X157.643 Y120.599 E5.48294
G1 X157.123 Y121.388 E5.52537
G1 X156.726 Y121.96 E5.55664
G1 X156.232 Y122.618 E5.59358
G1 X155.649 Y123.33 E5.6349
G1 X155.192 Y123.863 E5.66642
G1 X154.709 Y124.39 E5.69852
G1 X154.143 Y124.96 E5.73459
G1 X153.51 Y125.565 E5.77391
G1 X152.976 Y126.043 E5.80609
G1 X152.318 Y126.585 E5.84436
G1 X151.574 Y127.163 E5.88667
G1 X150.871 Y127.666 E5.92548
G1 X150.052 Y128.198 E5.96933
G1 X149.451 Y128.567 E6.001
G1 X148.769 Y128.953 E6.03619
G1 X147.873 Y129.413 E6.08141
G1 X147.275 Y129.7 E6.11119
G1 X146.578 Y130.005 E6.14535
G1 X145.635 Y130.374 E6.19082
G1 X143.859 Y131.015 E6.2756
G1 X143.217 Y131.237 E6.3061
G1 X140.89 Y132.116 E6.41779
G1 X138.557 Y133.072 E6.531
G1 X136.259 Y134.092 E6.64389
G1 X133.972 Y135.184 E6.75769
G1 X131.756 Y136.322 E6.86954
G1 X129.532 Y137.544 E6.98348
G1 X127.348 Y138.826 E7.09719
G1 X126.458 Y139.381 E7.14429
G1 X125.703 Y139.837 E7.18389
G1 X124.88 Y140.287 E7.22601
G1 X124.022 Y140.666 E7.26813
G1 X123.135 Y140.97 E7.31023
G1 X122.225 Y141.197 E7.35234
G1 X121.299 Y141.346 E7.39445
G1 X120.213 Y141.419 E7.44333
G1 X119.459 Y141.431 E7.47719
G1 X93.634 Y141.43 E8.63676
G1 X92.933 Y141.42 E8.66824
G1 X91.997 Y141.367 E8.71033
G1 X91.068 Y141.234 E8.75247
G1 X90.155 Y141.022 E8.79456
G1 X89.262 Y140.734 E8.83669
G1 X88.398 Y140.37 E8.87878
G1 X87.567 Y139.934 E8.92092
G1 X86.777 Y139.429 E8.96302
G1 X86.033 Y138.859 E9.0051
G1 X85.497 Y138.38 E9.03738
G1 X84.964 Y137.867 E9.0706
G1 X83.69 Y136.592 E9.15153
G1 X83.219 Y136.109 E9.18182
G1 X82.593 Y135.41 E9.22395
G1 X82.029 Y134.66 E9.26609
G1 X81.531 Y133.866 E9.30817
G1 X81.103 Y133.031 E9.3503
G1 X80.747 Y132.164 E9.39239
G1 X80.556 Y131.584 E9.4198
G1 X80.24 Y130.528 E9.4693
G1 X79.46 Y128.048 E9.58603
G1 X78.641 Y125.679 E9.69858
G1 X77.751 Y123.322 E9.8117
G1 X76.736 Y120.862 E9.93119
G1 X75.892 Y118.867 E10.02846
G1 X75.433 Y117.554 E10.09091
G1 X75.278 Y117 E10.11674
G1 X75.006 Y115.756 E10.17392
G1 X74.914 Y115.175 E10.20033
G1 X74.788 Y113.891 E10.25826
G1 X74.765 Y113.311 E10.28432
G1 X74.79 Y112.008 E10.34284
G1 X74.838 Y111.401 E10.37018
G1 X75.022 Y110.087 E10.42976
G1 X75.232 Y109.088 E10.47559
G1 X75.872 Y106.426 E10.59853
G1 X76.385 Y103.981 E10.7107
G1 X76.836 Y101.49 E10.82437
G1 X77.248 Y98.757 E10.94847
G1 F3000 E2.94847
G0 F6000 X76.784 Y104.028
G1 F3000 E10.94847
G1 F1200 X77.232 Y101.549 E11.06158
G1 X77.645 Y98.814 E11.18578
G1 X77.767 Y97.909 E11.22678
G1 X77.951 Y96.912 E11.27231
G1 X78.079 Y96.366 E11.29749
G1 X78.431 Y95.18 E11.35304
G1 X78.635 Y94.616 E11.37996
G1 X79.129 Y93.466 E11.43616
G1 X79.39 Y92.946 E11.46229
G1 X80.017 Y91.862 E11.51852
G1 X80.349 Y91.359 E11.54558
G1 X81.101 Y90.355 E11.6019
G1 X81.478 Y89.909 E11.62812
G1 X82.338 Y89.005 E11.68415
G1 X82.762 Y88.609 E11.7102
G1 X83.664 Y87.856 E11.76296
G1 X84.352 Y87.351 E11.80128
G1 X85.082 Y86.844 E11.84119
G1 X87.207 Y85.324 E11.9585
G1 X89.244 Y83.776 E12.07338
G1 X91.199 Y82.202 E12.18607
G1 X92.097 Y81.443 E12.23887
G1 X92.452 Y81.153 E12.25945
G1 X93.19 Y80.602 E12.3008
G1 X93.972 Y80.117 E12.34212
G1 X94.794 Y79.702 E12.38347
G1 X95.649 Y79.36 E12.42481
G1 X96.53 Y79.093 E12.46615
G1 X97.431 Y78.904 E12.50749
G1 X98.345 Y78.793 E12.54883
G1 X98.968 Y78.764 E12.57683
G1 X99.715 Y78.752 E12.61038
G1 X125.383 Y78.752 E13.7629
G1 X126.236 Y78.763 E13.8012
G1 X127.155 Y78.816 E13.84254
G1 X128.066 Y78.949 E13.88387
G1 X128.962 Y79.16 E13.92521
G1 X129.837 Y79.448 E13.96657
G1 X130.72 Y79.829 E14.00975
G1 X133.233 Y81.051 E14.13522
G1 X135.522 Y82.083 E14.24796
G1 X137.882 Y83.068 E14.36279
G1 X140.25 Y83.979 E14.47671
G1 X142.638 Y84.822 E14.59042
G1 X145.182 Y85.657 E14.71064
G1 X145.907 Y85.924 E14.74533
G1 X146.723 Y86.267 E14.78508
G1 X147.478 Y86.608 E14.82228
G1 X148.205 Y86.97 E14.85874
G1 X149.048 Y87.437 E14.90201
G1 X149.677 Y87.807 E14.93478
G1 X150.317 Y88.215 E14.96886
G1 X151.069 Y88.739 E15.01002
G1 X151.624 Y89.145 E15.04089
G1 X152.251 Y89.64 E15.07676
G1 X152.949 Y90.242 E15.11815
G1 X153.484 Y90.725 E15.15051
G1 X154.069 Y91.295 E15.18719
G1 X154.699 Y91.965 E15.22848
G1 X155.174 Y92.494 E15.2604
G1 X155.677 Y93.098 E15.2957
G1 X156.245 Y93.841 E15.33769
G1 X156.649 Y94.397 E15.36855
G1 X156.992 Y94.899 E15.39585
G1 X157.419 Y95.579 E15.4319
G1 X157.909 Y96.414 E15.47537
G1 X158.248 Y97.039 E15.5073
G1 X158.595 Y97.748 E15.54274
G1 X158.98 Y98.593 E15.58444
G1 X159.236 Y99.204 E15.61418
G1 X159.501 Y99.922 E15.64855
G1 X159.822 Y100.876 E15.69374
G1 X160.036 Y101.597 E15.72751
G1 X160.24 Y102.406 E15.76497
G1 X160.425 Y103.232 E15.80298
G1 X160.569 Y104.013 E15.83864
G1 X160.698 Y104.927 E15.88009
G1 X160.784 Y105.672 E15.91376
G1 X160.845 Y106.443 E15.94849
G1 X160.879 Y107.385 E15.99081
G1 X160.887 Y108.082 E16.02211
G1 X160.869 Y108.84 E16.05615
G1 X160.804 Y109.83 E16.1007
G1 X160.739 Y110.532 E16.13236
G1 X160.642 Y111.284 E16.1664
G1 X160.486 Y112.202 E16.20821
G1 X160.351 Y112.896 E16.23996
G1 X160.171 Y113.668 E16.27555
G1 X159.934 Y114.514 E16.315
G1 X159.708 Y115.251 E16.34961
G1 X159.502 Y115.857 E16.37835
G1 X159.201 Y116.638 E16.41594
G1 X158.843 Y117.491 E16.45747
G1 X158.512 Y118.204 E16.49277
G1 X158.07 Y119.059 E16.53599
G1 X157.715 Y119.703 E16.569
G1 X157.308 Y120.381 E16.60451
G1 X156.794 Y121.16 E16.64642
G1 X156.397 Y121.732 E16.67768
G1 X155.921 Y122.366 E16.71328
G1 X155.345 Y123.07 E16.75412
G1 X154.888 Y123.603 E16.78565
G1 X154.423 Y124.111 E16.81657
G1 X153.867 Y124.671 E16.852
G1 X153.234 Y125.276 E16.89132
G1 X152.719 Y125.737 E16.92235
G1 X152.073 Y126.269 E16.95993
G1 X151.329 Y126.847 E17.00223
G1 X150.652 Y127.332 E17.03963
G1 X149.843 Y127.857 E17.08293
G1 X149.242 Y128.226 E17.1146
G1 X148.584 Y128.599 E17.14856
G1 X147.699 Y129.052 E17.1932
G1 X147.101 Y129.339 E17.22298
G1 X146.43 Y129.634 E17.25589
G1 X145.499 Y129.998 E17.30078
G1 X143.729 Y130.637 E17.38527
G1 X143.07 Y130.864 E17.41657
G1 X140.744 Y131.743 E17.52822
G1 X138.408 Y132.7 E17.64157
G1 X136.087 Y133.731 E17.7556
G1 X133.797 Y134.825 E17.86956
G1 X131.56 Y135.973 E17.98246
G1 X129.328 Y137.199 E18.0968
G1 X127.155 Y138.475 E18.20995
G1 X126.251 Y139.038 E18.25777
G1 X125.496 Y139.494 E18.29737
G1 X124.688 Y139.936 E18.33873
G1 X123.845 Y140.305 E18.38004
G1 X122.973 Y140.6 E18.42138
G1 X122.078 Y140.818 E18.46274
G1 X121.168 Y140.958 E18.50408
G1 X120.206 Y141.019 E18.54736
G1 X119.459 Y141.031 E18.58091
G1 X93.64 Y141.03 E19.74021
G1 X92.939 Y141.02 E19.77169
G1 X92.02 Y140.967 E19.81302
G1 X91.109 Y140.834 E19.85436
G1 X90.213 Y140.623 E19.89569
G1 X89.338 Y140.335 E19.93706
G1 X88.492 Y139.972 E19.97839
G1 X87.681 Y139.537 E20.01971
G1 X86.91 Y139.033 E20.06107
G1 X86.186 Y138.464 E20.10242
G1 X85.773 Y138.091 E20.12741
G1 X85.247 Y137.584 E20.16021
G1 X83.976 Y136.312 E20.24095
G1 X83.505 Y135.829 E20.27124
G1 X82.891 Y135.143 E20.31258
G1 X82.34 Y134.406 E20.3539
G1 X81.854 Y133.624 E20.39524
G1 X81.438 Y132.802 E20.43661
G1 X81.095 Y131.948 E20.47793
G1 X80.939 Y131.469 E20.50055
G1 X80.604 Y130.35 E20.553
G1 X79.844 Y127.934 E20.66672
G1 X79.022 Y125.555 E20.77973
G1 X78.124 Y123.178 E20.89383
G1 X77.101 Y120.699 E21.01424
G1 X76.26 Y118.711 E21.11116
G1 X75.818 Y117.446 E21.17133
G1 X75.663 Y116.892 E21.19716
G1 X75.401 Y115.694 E21.25223
G1 X75.309 Y115.113 E21.27864
G1 X75.187 Y113.875 E21.33449
G1 X75.164 Y113.295 E21.36056
G1 X75.189 Y112.039 E21.41697
G1 X75.237 Y111.432 E21.44431
G1 X75.414 Y110.166 E21.5017
G1 X75.621 Y109.182 E21.54685
G1 X76.256 Y106.539 E21.6689
G1 X76.784 Y104.028 E21.78412
G1 F3000 E13.78412
G0 F6000 X75.564 Y113.279
G1 F3000 E21.78412
G1 F1200 X75.588 Y112.071 E21.83837
G1 X75.636 Y111.464 E21.86571
G1 X75.807 Y110.245 E21.92098
G1 X76.01 Y109.275 E21.96548
G1 X76.651 Y106.61 E22.08855
G1 X77.176 Y104.11 E22.20325
G1 X77.622 Y101.642 E22.31586
G1 X78.041 Y98.861 E22.44214
G1 X78.163 Y97.963 E22.48283
G1 X78.34 Y97.003 E22.52667
G1 X78.468 Y96.457 E22.55185
G1 X78.807 Y95.316 E22.60529
G1 X79.011 Y94.752 E22.63222
G1 X79.487 Y93.645 E22.68633
G1 X79.748 Y93.125 E22.71245
G1 X80.351 Y92.082 E22.76655
G1 X80.683 Y91.579 E22.79361
G1 X81.406 Y90.613 E22.84779
G1 X81.783 Y90.167 E22.87401
G1 X82.611 Y89.298 E22.9279
G1 X83.035 Y88.902 E22.95395
G1 X83.903 Y88.176 E23.00476
G1 X84.58 Y87.679 E23.04247
G1 X85.337 Y87.154 E23.08384
G1 X87.459 Y85.635 E23.20101
G1 X89.492 Y84.091 E23.31564
G1 X91.445 Y82.518 E23.42824
G1 X92.35 Y81.753 E23.48145
G1 X92.705 Y81.463 E23.50203
G1 X93.429 Y80.923 E23.54258
G1 X94.198 Y80.449 E23.58315
G1 X95.006 Y80.045 E23.62371
G1 X95.846 Y79.715 E23.66423
G1 X96.712 Y79.46 E23.70477
G1 X97.598 Y79.282 E23.74534
G1 X98.496 Y79.184 E23.7859
G1 X98.975 Y79.164 E23.80743
G1 X99.715 Y79.152 E23.84066
G1 X125.383 Y79.152 E24.99319
G1 X126.23 Y79.163 E25.03122
G1 X127.132 Y79.216 E25.07179
G1 X128.025 Y79.348 E25.11232
G1 X128.903 Y79.559 E25.15287
G1 X129.759 Y79.847 E25.19342
G1 X130.545 Y80.189 E25.23191
G1 X133.06 Y81.412 E25.35748
G1 X135.353 Y82.446 E25.47042
G1 X137.764 Y83.452 E25.58773
G1 X140.079 Y84.343 E25.69911
G1 X142.507 Y85.2 E25.81472
G1 X145.058 Y86.037 E25.93527
G1 X145.755 Y86.294 E25.96862
G1 X146.559 Y86.631 E26.00777
G1 X147.314 Y86.972 E26.04497
G1 X148.013 Y87.321 E26.08005
G1 X148.846 Y87.782 E26.12279
G1 X149.475 Y88.152 E26.15556
G1 X150.09 Y88.545 E26.18833
G1 X150.833 Y89.062 E26.22898
G1 X151.388 Y89.468 E26.25985
G1 X151.991 Y89.944 E26.29435
G1 X152.681 Y90.539 E26.33526
G1 X153.216 Y91.022 E26.36762
G1 X153.778 Y91.57 E26.40286
G1 X154.401 Y92.232 E26.44368
G1 X154.876 Y92.761 E26.47561
G1 X155.36 Y93.342 E26.50956
G1 X155.922 Y94.076 E26.55107
G1 X156.326 Y94.632 E26.58193
G1 X156.656 Y95.115 E26.60819
G1 X157.074 Y95.782 E26.64354
G1 X157.564 Y96.617 E26.68701
G1 X157.89 Y97.217 E26.71767
G1 X158.231 Y97.914 E26.75251
G1 X158.616 Y98.759 E26.7942
G1 X158.862 Y99.347 E26.82282
G1 X159.121 Y100.049 E26.85642
G1 X159.442 Y101.003 E26.90162
G1 X159.649 Y101.698 E26.93418
G1 X159.849 Y102.494 E26.97103
G1 X160.034 Y103.32 E27.00904
G1 X160.173 Y104.071 E27.04333
G1 X160.301 Y104.973 E27.08424
G1 X160.387 Y105.718 E27.11791
G1 X160.445 Y106.46 E27.15133
G1 X160.479 Y107.39 E27.19312
G1 X160.487 Y108.087 E27.22441
G1 X160.47 Y108.816 E27.25716
G1 X160.406 Y109.793 E27.30112
G1 X160.341 Y110.495 E27.33277
G1 X160.247 Y111.219 E27.36555
G1 X160.093 Y112.126 E27.40686
G1 X159.958 Y112.82 E27.43861
G1 X159.785 Y113.562 E27.47282
G1 X159.552 Y114.396 E27.5117
G1 X159.326 Y115.133 E27.54631
G1 X159.128 Y115.716 E27.57396
G1 X158.832 Y116.483 E27.61087
G1 X158.474 Y117.336 E27.65241
G1 X158.156 Y118.023 E27.6864
G1 X157.72 Y118.866 E27.72902
G1 X157.365 Y119.51 E27.76204
G1 X156.973 Y120.162 E27.7962
G1 X156.465 Y120.932 E27.83762
G1 X156.068 Y121.504 E27.86888
G1 X155.61 Y122.114 E27.90313
G1 X155.041 Y122.809 E27.94346
G1 X154.584 Y123.342 E27.97499
G1 X154.137 Y123.831 E28.00473
G1 X153.591 Y124.382 E28.03956
G1 X152.958 Y124.987 E28.07888
G1 X152.462 Y125.43 E28.10874
G1 X151.828 Y125.953 E28.14564
G1 X151.084 Y126.531 E28.18795
G1 X150.432 Y126.997 E28.22393
G1 X149.634 Y127.516 E28.26667
G1 X149.033 Y127.885 E28.29834
G1 X148.4 Y128.244 E28.33101
G1 X147.526 Y128.692 E28.37511
G1 X146.928 Y128.979 E28.4049
G1 X146.282 Y129.262 E28.43656
G1 X145.363 Y129.622 E28.48088
G1 X143.598 Y130.258 E28.56512
G1 X142.977 Y130.472 E28.59461
G1 X140.588 Y131.375 E28.70929
G1 X138.243 Y132.336 E28.82308
G1 X135.918 Y133.368 E28.9373
G1 X133.62 Y134.466 E29.05165
G1 X131.364 Y135.624 E29.16552
G1 X129.138 Y136.846 E29.27954
G1 X126.979 Y138.114 E29.39196
G1 X126.044 Y138.696 E29.44141
G1 X125.289 Y139.152 E29.48102
G1 X124.496 Y139.584 E29.52156
G1 X123.668 Y139.945 E29.56212
G1 X122.812 Y140.23 E29.60263
G1 X121.933 Y140.439 E29.6432
G1 X121.039 Y140.57 E29.68377
G1 X120.199 Y140.619 E29.72155
G1 X119.459 Y140.631 E29.75478
G1 X93.646 Y140.63 E30.91382
G1 X92.945 Y140.62 E30.9453
G1 X92.043 Y140.567 E30.98587
G1 X91.15 Y140.435 E31.0264
G1 X90.271 Y140.224 E31.06699
G1 X89.415 Y139.936 E31.10754
G1 X88.588 Y139.574 E31.14808
G1 X87.796 Y139.14 E31.18863
G1 X87.046 Y138.637 E31.22918
G1 X86.049 Y137.801 E31.2876
G1 X85.53 Y137.301 E31.31996
G1 X84.262 Y136.033 E31.40047
G1 X83.791 Y135.55 E31.43077
G1 X83.19 Y134.876 E31.47131
G1 X82.651 Y134.152 E31.51184
G1 X82.178 Y133.383 E31.55238
G1 X81.774 Y132.575 E31.59294
G1 X81.322 Y131.354 E31.6514
G1 X81.003 Y130.289 E31.70132
G1 X80.217 Y127.788 E31.81903
